src/view/frontend/web/svg/heroicons/solid/cash.svg

<svg viewBox="0 0 20 20" fill="currentColor" xmlns="http://www.w3.org/2000/svg">

<path fill-rule="evenodd" clip-rule="evenodd" d="M4 4C2.89543 4 2 4.89543 2 6V10C2 11.1046 2.89543 12 4 12V6H14C14 4.89543 13.1046 4 12 4H4ZM6 10C6 8.89543 6.89543 8 8 8H16C17.1046 8 18 8.89543 18 10V14C18 15.1046 17.1046 16 16 16H8C6.89543 16 6 15.1046 6 14V10ZM12 14C13.1046 14 14 13.1046 14 12C14 10.8954 13.1046 10 12 10C10.8954 10 10 10.8954 10 12C10 13.1046 10.8954 14 12 14Z" />
</svg>

<svg xmlns="http://www.w3.org/2000/svg" fill="currentColor" viewBox="0 0 20 20"><path fill-rule="evenodd" d="M4 4a2 2 0 0 0-2 2v4a2 2 0 0 0 2 2V6h10a2 2 0 0 0-2-2H4Zm2 6a2 2 0 0 1 2-2h8a2 2 0 0 1 2 2v4a2 2 0 0 1-2 2H8a2 2 0 0 1-2-2v-4Zm6 4a2 2 0 1 0 0-4 2 2 0 0 0 0 4Z" clip-rule="evenodd"/></svg>
